public/icons/networks/aave.svg

<svg viewBox="0 0 33 33" fill="none" xmlns="http://www.w3.org/2000/svg">
<path d="M0.666656 16.6667C0.666656 7.8301 7.8301 0.666656 16.6667 0.666656V0.666656C25.5032 0.666656 32.6667 7.8301 32.6667 16.6667V16.6667C32.6667 25.5032 25.5032 32.6667 16.6667 32.6667V32.6667C7.8301 32.6667 0.666656 25.5032 0.666656 16.6667V16.6667Z" fill="url(#paint0_linear_981_10086)"/>
<path d="M23.9309 13.1581C23.8541 9.12666 20.5253 5.92456 16.4939 6.00135C12.57 6.0743 9.4101 9.23801 9.33715 13.1581C9.33715 13.1773 9.33331 13.1965 9.33331 13.2118V13.3232V26.5194C9.33331 26.9686 9.69806 27.3295 10.1434 27.3295C10.5888 27.3295 10.9536 26.9647 10.9536 26.5194V24.1619C10.9536 23.7127 11.3183 23.3518 11.7637 23.3518C12.2091 23.3518 12.5738 23.7166 12.5738 24.1619V25.2792C12.5853 25.7284 12.9539 26.0817 13.4031 26.074C13.837 26.0663 14.1864 25.7131 14.1979 25.2792V24.1619C14.1979 23.7127 14.5626 23.3518 15.008 23.3518C15.4572 23.3518 15.8181 23.7166 15.8181 24.1619V24.4691C15.8181 24.9183 16.1829 25.2792 16.6283 25.2792C17.0775 25.2792 17.4384 24.9145 17.4384 24.4691V24.1619C17.4499 23.7127 17.8185 23.3595 18.2677 23.3672C18.7016 23.3749 19.051 23.7281 19.0625 24.1619V25.2792C19.0625 25.7284 19.4272 26.0893 19.8726 26.0893C20.318 26.0893 20.6904 25.7323 20.6904 25.2831V24.1658C20.6904 23.7166 21.0551 23.3557 21.5005 23.3557C21.9497 23.3557 22.3106 23.7204 22.3106 24.1658V26.5232C22.3106 26.9724 22.6754 27.3333 23.1208 27.3333C23.5661 27.3333 23.9309 26.9686 23.9309 26.5232V13.2157C23.9347 13.1965 23.9347 13.1773 23.9309 13.1581ZM13.9406 14.3291C13.2227 14.3291 12.6429 13.6649 12.6429 12.8394C12.6429 12.0139 13.2265 11.3497 13.9406 11.3497C14.6548 11.3497 15.2384 12.0139 15.2384 12.8394C15.2384 13.6649 14.6586 14.3291 13.9406 14.3291ZM16.6897 16.4331C16.037 16.4331 15.511 16.0454 15.511 15.5654C15.511 15.0855 16.0408 15.3773 16.6897 15.3773C17.3386 15.3773 17.8684 15.0893 17.8684 15.5654C17.8684 16.0415 17.3424 16.4293 16.6897 16.4331ZM19.3274 14.3291C18.6094 14.3291 18.0297 13.6649 18.0297 12.8394C18.0297 12.0139 18.6094 11.3497 19.3274 11.3497C20.0454 11.3497 20.6251 12.0139 20.6251 12.8394C20.6251 13.6649 20.0415 14.3291 19.3274 14.3291Z" fill="white"/>
<defs>
<linearGradient id="paint0_linear_981_10086" x1="32.6667" y1="12.7292" x2="0.666656" y2="25.1042" gradientUnits="userSpaceOnUse">
<stop stop-color="#B6509E"/>
<stop offset="1" stop-color="#2EBAC6"/>
</linearGradient>
</defs>
</svg>

<svg viewBox="0 0 33 33" fill="none" xmlns="http://www.w3.org/2000/svg"><path d="M.667 16.667c0-8.837 7.163-16 16-16 8.836 0 16 7.163 16 16 0 8.836-7.164 16-16 16-8.837 0-16-7.164-16-16Z" fill="url(#a)"/><path d="M23.93 13.158a7.296 7.296 0 0 0-7.436-7.157 7.294 7.294 0 0 0-7.157 7.157c0 .02-.004.039-.004.054v13.307a.81.81 0 0 0 1.62 0v-2.357a.81.81 0 0 1 1.62 0v1.117c.012.45.38.803.83.795a.814.814 0 0 0 .795-.795v-1.117a.81.81 0 0 1 1.62 0v.307a.81.81 0 0 0 1.62 0v-.307a.814.814 0 0 1 .83-.795c.434.008.783.361.794.795v1.117a.814.814 0 0 0 1.628.004v-1.117a.81.81 0 0 1 1.62 0v2.357a.81.81 0 0 0 1.62 0V13.216a.147.147 0 0 0 0-.058Zm-9.99 1.171c-.717 0-1.297-.664-1.297-1.49 0-.825.583-1.49 1.298-1.49.714 0 1.297.665 1.297 1.49 0 .826-.58 1.49-1.297 1.49Zm2.75 2.104c-.653 0-1.179-.388-1.179-.868s.53-.188 1.179-.188 1.178-.288 1.178.188-.526.864-1.178.868Zm2.637-2.104c-.718 0-1.297-.664-1.297-1.49 0-.825.58-1.49 1.297-1.49.718 0 1.298.665 1.298 1.49 0 .826-.584 1.49-1.298 1.49Z" fill="#fff"/><defs><linearGradient id="a" x1="32.667" y1="12.729" x2=".667" y2="25.104" gradientUnits="userSpaceOnUse"><stop stop-color="#B6509E"/><stop offset="1" stop-color="#2EBAC6"/></linearGradient></defs></svg>
